src/components/LandingPage/images/pipes.svg

<svg fill="none" viewBox="0 0 1445 1177"><path stroke="#AA4375" stroke-width="15" d="M1438.5 301.001H1240c-11.05 0-20-8.954-20-20v-253c0-11.047-8.95-20-20-20H355c-11.046 0-20 8.954-20 20v319.004c0 11.045 8.954 19.999 20 20h61.5c11.046 0 20 8.955 20 20v113.003c0 11.045-8.954 20-20 20l-187.5.001H112c-11.046 0-20 8.954-20 20v608.501c0 11.05-8.954 20-20 20H0" opacity=".3"/><path stroke="#6858AB" stroke-opacity=".4" stroke-width="15" d="M1444.5 478.014H1380c-11.05 0-20-8.954-20-20v-51c0-11.046-8.95-20-20-20h-28c-11.05 0-20-8.954-20-20v-124.5c0-11.046-8.95-20-20-20h-122c-11.05 0-20-8.954-20-20v-69.5c0-11.046 8.95-20 20-20h294.5" opacity=".3"/><path stroke="#933D74" stroke-width="15" d="M3 55.514h40c11.046 0 20 8.955 20 20v169.5c0 11.046 8.954 20 20 20h63.5c11.046 0 20-8.954 20-20v-82.002c0-11.046 8.954-20 20-20H370c11.046 0 20 8.954 20 20v148.002c0 11.046-8.954 20-20 20H264c-11.046 0-20 8.955-20 20v307c0 11.046-8.954 20-20 20H3m1023-643v27c0 11.046 8.95 20 20 20h28c11.05 0 20 8.955 20 20v166.5c0 11.046-8.95 20-20 20h-42.5c-11.05 0-20-8.954-20-20v-47c0-11.046 8.95-20 20-20h92c11.05 0 20 8.954 20 20v152c0 11.046-8.95 20-20 20H1077c-11.05 0-20 8.954-20 20v26c0 11.046 8.95 20 20 20h81.5c11.05 0 20 8.954 20 20v143c0 11.046 8.95 20 20 20h166c11.05 0 20 8.954 20 20v337c0 11.046 8.95 19.996 20 19.996h33.5" opacity=".3"/><path stroke="#8978CD" stroke-opacity=".4" stroke-width="15" d="M5 501.514h118c11.046 0 20 8.954 20 20v29.5c0 11.046 8.954 20 20 20h105c11.046 0 20-8.954 20-20v-65c0-11.046 8.954-20 20-20h894.5c11.05 0 20 8.954 20 20v90c0 11.046 8.95 20 20 20h39.5c11.05 0 20 8.954 20 20v375.5c0 11.046 8.95 19.996 20 19.996h117.5" opacity=".2"/></svg>

<svg xmlns="http://www.w3.org/2000/svg" width="1445" height="1177" fill="none" viewBox="0 0 1445 1177"><path stroke="#AA4375" stroke-width="15" d="M1438.5 301.001L1240 301.001C1228.95 301.001 1220 292.047 1220 281.001L1220 28.0002C1220 16.9545 1211.05 8.00022 1200 8.00022L732 8.00018L355 8.00015C343.954 8.00015 335 16.9545 335 28.0001L335 118.501L335 347.005C335 358.05 343.954 367.004 355 367.005L416.5 367.005C427.546 367.005 436.5 375.96 436.5 387.005L436.5 500.008C436.5 511.053 427.546 520.008 416.5 520.008L229 520.009L112 520.009C100.954 520.009 92.0001 528.963 92.0001 540.009L92 1148.51C92 1159.56 83.0457 1168.51 72 1168.51H0" opacity=".3"/><path stroke="#6858AB" stroke-opacity=".4" stroke-width="15" d="M1444.5 478.014H1380C1368.95 478.014 1360 469.06 1360 458.014V407.014C1360 395.968 1351.05 387.014 1340 387.014H1312C1300.95 387.014 1292 378.06 1292 367.014V242.514C1292 231.468 1283.05 222.514 1272 222.514H1150C1138.95 222.514 1130 213.56 1130 202.514V133.014C1130 121.968 1138.95 113.014 1150 113.014H1444.5" opacity=".3"/><path stroke="#933D74" stroke-width="15" d="M2.99993 55.5142L43 55.5142C54.0456 55.5142 63 64.4685 63 75.5142L63 245.014C63 256.06 71.9543 265.014 83 265.014L146.5 265.014C157.546 265.014 166.5 256.06 166.5 245.014L166.5 163.012C166.5 151.966 175.454 143.012 186.5 143.012L370 143.012C381.046 143.012 390 151.966 390 163.012L390 311.014C390 322.06 381.046 331.014 370 331.014L264 331.014C252.954 331.014 244 339.969 244 351.014L244 658.014C244 669.06 235.046 678.014 224 678.014L2.99994 678.014" opacity=".3"/><path stroke="#933D74" stroke-width="15" d="M1026 35.0141L1026 62.0142C1026 73.0599 1034.95 82.0142 1046 82.0142L1074 82.0143C1085.05 82.0143 1094 90.9686 1094 102.014L1094 268.514C1094 279.56 1085.05 288.514 1074 288.514L1031.5 288.514C1020.45 288.514 1011.5 279.56 1011.5 268.514L1011.5 221.514C1011.5 210.468 1020.45 201.514 1031.5 201.514L1123.5 201.514C1134.55 201.514 1143.5 210.468 1143.5 221.514L1143.5 373.514C1143.5 384.56 1134.55 393.514 1123.5 393.514L1077 393.514C1065.95 393.514 1057 402.468 1057 413.514L1057 439.514C1057 450.56 1065.95 459.514 1077 459.514L1158.5 459.514C1169.55 459.514 1178.5 468.468 1178.5 479.514L1178.5 622.514C1178.5 633.56 1187.45 642.514 1198.5 642.514L1364.5 642.514C1375.55 642.514 1384.5 651.468 1384.5 662.514L1384.5 999.514C1384.5 1010.56 1393.45 1019.51 1404.5 1019.51L1438 1019.51" opacity=".3"/><path stroke="#8978CD" stroke-opacity=".4" stroke-width="15" d="M5 501.514H123C134.046 501.514 143 510.468 143 521.514V551.014C143 562.06 151.954 571.014 163 571.014H268C279.046 571.014 288 562.06 288 551.014V486.014C288 474.968 296.954 466.014 308 466.014H1202.5C1213.55 466.014 1222.5 474.968 1222.5 486.014V576.014C1222.5 587.06 1231.45 596.014 1242.5 596.014H1282C1293.05 596.014 1302 604.968 1302 616.014V991.514C1302 1002.56 1310.95 1011.51 1322 1011.51H1439.5" opacity=".2"/></svg>
